X: 1
I: linebreak $
T: Amoroso
P: Play two times through
N: Drone: D/A
K: D dorian
M: 4/4
L: 1/8
P: A (3x)
"^Piva"DEFE D2EF | GAGF E2D2 | DEFE D2AG | FDE2 "       (3)" D4 :: 
P: B
A2A2 G2c2 | A2A2 G2AB | 
c2ed cAB2 | 
M: 2/4
A4 :: 
M: 4/4
P: C
ddcB/A/ A2AB | c3B/A/ G2AB | c2ed cAB2 | 
M: 2/4
A4 :: 
M: 4/4
P: D
A2A2 G2c2 | A2A2 G2G2 | A2A2 GEF2 | E2E2 E2F2 | FEFG AG/F/E2 | E2E2 E/E/E/E/F3/G/ | 
A2A2 A2AG | F3D F2E2 | 
M: 2/4
D4 :| 

